X:1
T:Oh, to Be Nothing
T:Oh, to Be Nothing
T:R. George Halls, arranged by Phlip Paul Bliss 
T:Georgiana M. Taylor, 1869
T:Public Domain Courtesy of the Cyber Hymnal™
T:Public Domain Courtesy of the Cyber Hymnal™
C:R. George Halls, arranged by Phlip Paul Bliss
Z:Public Domain
Z:Courtesy of the Cyber Hymnal™
%%score ( 1 2 ) ( 3 4 )
L:1/8
Q:1/4=100
M:6/8
K:C
V:1 treble 
V:2 treble 
V:3 bass 
V:4 bass 
V:1
 [EG]>[DF][CE] [Ec] [GB]2 | [GB] [FA]4 z | [EG]>[FA][EG] [FA][EG][CE] | [B,D]3- [B,D]2 [FG] | %4
w: 1.~Oh, to be no- thing,|no- thing,|On- ly to lie at His|feet, * A|
w: 2.~Oh, to be no- thing,|no- thing,|On- ly as led by His|hand; * A|
w: 3.~Oh, to be no- thing,|no- thing,|Pain- ful the hum- bling may|be, * Yet|
 [EG]>[DF][CE] [Ec]2 [GB] | [GB] [FA]4 [Fc]/[Fc]/ | ([EB][B,D])[CE] ([EG][DF])[B,D] | C3- C2 z | %8
w: brok- en and emp- tied|ves- sel, For the|Mas- * ter’s use * made|meet. *|
w: mes- sen- ger at His|gate- way, On- ly|wait- * ing for~His * com-|mand; *|
w: low in the dust I’d|lay me That the|world~might * my Sav- * ior|see. *|
 [DF]<[DF][B,D] ([B,D][CE])[DF] | [FA] [EG]4 [EG] | [EG][B,D][CE] [DF][FA][EG] | [CE]3- [CE]2 z | %12
w: Emp- tied that He * might|fill me As|forth to His ser- vice I|go; *|
w: On- ly an in~stru- * ment|rea- dy His|prais- es to sound at His|will, *|
w: Ra- ther be no- * thing,|no- thing, To|Him let our voic- es be|raised, *|
 [DF]<[B,D][B,D] ([B,D][CE])[DF] | [FA] [EG]4 [EG] | ([D^F][DE])[DF] ([Dc][DA])[CF] | %15
w: Brok- en, that so * un-|hin- dered, His|life * through me * might|
w: Will- ing should He~not * re-|quire me, In|silence * to wait~on * Him|
w: He is the fountain * of|bless- ing, He|only * is meet~to * be|
 G3- !fermata!G3 ||"^Refrain" [EG]>[DF][CE] [Ec] [GB]2 | [GB] [FA]4 z | %18
w: show. *|||
w: still. *|Oh, to be no- thing,|no- thing,|
w: praised. *|||
 [EG]>[FA][EG] [FA][EG][CE] | [B,D]3- [B,D]2 [FG] | [EG]>[DF][CE] [Ec]2 [GB] | %21
w: |||
w: On- ly to lie at His|feet, * A|brok- en and emp- tied|
w: |||
 [GB] [FA]4 [Fc]/[Fc]/ | ([EB][B,D])[CE] ([EG][DF])[B,D] | C3- C2 z |] %24
w: |||
w: ves- sel, For the|Mas- * ter’s use * made|meet. *|
w: |||
V:2
 x6 | x6 | x6 | x6 | x6 | x6 | x6 | C3- C2 x | x6 | x6 | x6 | x6 | x6 | x6 | x6 | (B,2 C D2 F) || %16
 x6 | x6 | x6 | x6 | x6 | x6 | x6 | C3- C2 x |] %24
V:3
 [C,G,]>[C,G,][C,G,] [C,C] [E,C]2 | [F,C] [F,C]4 z | [C,C]>[C,C][C,C] [C,C][C,C][C,G,] | %3
 [G,,G,]3- [G,,G,]2 [G,,G,] | [C,G,]>[C,G,][C,G,] [C,C]2 [E,C] | [F,C] [F,C]4 [F,A,]/[F,A,]/ | %6
 G,2 G, [G,,G,]2 [G,,F,] | [C,E,]3- [C,E,]2 z | [G,,G,]<[G,,G,][G,,G,] ([G,,G,][G,,G,])[G,,B,] | %9
 [C,C] [C,C]4 [C,C] | [G,C]G,G, [G,,G,][G,,G,][G,,G,] | [C,G,]3- [C,G,]2 z | %12
 [G,,G,]<[G,,G,][G,,G,] ([G,,G,][G,,G,])[G,,B,] | [C,C] [C,C]4 [C,C] | %14
 ([D,A,][D,G,])[D,A,] [D,A,]2 [D,A,] | G,3- !fermata![B,,G,]3 || [C,G,]>[C,G,][C,G,] [C,C] [E,C]2 | %17
 [F,C] [F,C]4 z | [C,C]>[C,C][C,C] [C,C][C,C][C,G,] | [G,,G,]3- [G,,G,]2 [G,,G,] | %20
 [C,G,]>[C,G,][C,G,] [C,C]2 [E,C] | [F,C] [F,C]4 [F,A,]/[F,A,]/ | G,2 G, [G,,G,]2 [G,,F,] | %23
 [C,E,]3- [C,E,]2 z |] %24
V:4
 x6 | x6 | x6 | x6 | x6 | x6 | G,2 G, x3 | x6 | x6 | x6 | x G,G, x3 | x6 | x6 | x6 | x6 | %15
 G,,2 A,, x3 || x6 | x6 | x6 | x6 | x6 | x6 | G,2 G, x3 | x6 |] %24

